X:74
T:Kissing and Flirting. LIT.074
M:9/8
Q:3/8=115
L:1/8
B:Wm. Litten MS, 1802
Z:Village Music Project 2017 Anne Wride
K:D
A2A dfd cec | A2A ded fga | A2A dfd cec | BGB gag dBG :|
|: a2a faf ege | a2a faf ece | a2 a f/g/af e/f/ge | dBg gag dBG :|

